X:44
T: ERLAUBN SIE MIR
N: E0658
O: Europa, Mitteleuropa, Deutschland, Gransee, Roennebeck
R: Liebes - Lied
M: 2/4
L: 1/16
K: G
D2 | G3GG2A2 | B4B2
B2 | A2d2c2A2 | G4z2
G2 | B3AB2B2 | d4d2
d2 | c2e2d2c2 | B4z2
GB | d2d2d2ed | c4c2
c2 | B2G2d2B2 | A4z2
D2 | G3AB2c2 | d4e2
dc | B4A4 | G4z2

@@@ Tune index: 4357
